X:1
T:The festal morn, my God, is come
T:The festal morn, my God, is come - Aldham (Thomas Clark)
C:Thomas Clark
Z:Text: James Merrick
%%score [ 1 2 3 4 ]
L:1/8
M:4/4
K:C
V:1 treble nm="SOPRANO" snm="S."
V:2 treble nm="ALTO" snm="A."
V:3 treble-8 transpose=-12 nm="TENOR" snm="T."
V:4 bass nm="BASS" snm="B."
V:1
 G2 | A3 B c2 e2 | (ed)(cB) c2 z d | e2 c2 d2 G2 | c2 B2 A2 z G | (^FA)(dc) B2 A2 | G4 z2 |: G2 | %8
w: Hi-|ther from Ju- dah’s|ut- * most _ end The|heav’n- pro- tec- ted|tribes as- cend; Their|off- * ’rings _ hi- ther|bring;|Here,|
w: The|fe- stal morn, my|God, _ is _ come, Which|calls me to thy|ho- nour’d dome, Thy|pre- * sence _ to a-|dore:|My|
w: Ev’n|now to our trans-|por- * ted _ eyes Fair|Si- on’s tow’rs in|pros- pect rise; With-|in _ her _ gates we|stand,|And,|
 (GB)(df) (ed)(cB) | A2 c2 G2 z B | (cd)(ef) (ge)(d^c) | d2 e2 f2 z d | e2 c2 A2 d2 | B2 G2 c2 f2 | %14
w: ea- * ger _ to _ at- *|test their joy, In|hymns _ of _ praise _ their _|tongues em- ploy, And|hail th’im- mor- tal|King, and hail th’im-|
w: feet _ the _ sum- * mons _|shall at- tend, With|wil- * ling _ steps _ thy _|courts as- cend, And|tread the hal- low’d|floor, and tread the|
w: lost _ in _ won- * der _|and de- light, Be-|hold _ her _ hap- * py _|sons u- nite In|friend- ship’s fir- mest|band, in friend- ship’s|
 e4 d4 | c4 z2 :| %16
w: mor- tal|King.|
w: hal- low’d|floor.|
w: fir- mest|band.|
V:2
 E2 | F3 F G2 G2 | (GF)(ED) E2 z G | G2 G2 G2 G2 | (E^F) G2 F2 z ^C | D2 (DE) D2 C2 | B,4 z2 |: %7
w: Hi-|ther from Ju- dah’s|ut- * most _ end The|heav’n- pro- tec- ted|tribes _ as- cend; Their|off- ’rings _ hi- ther|bring;|
w: The|fe- stal morn, my|God, _ is _ come, Which|calls me to thy|ho- * nour’d dome, Thy|pre- sence _ to a-|dore:|
w: Ev’n|now to our trans-|por- * ted _ eyes Fair|Si- on’s tow’rs in|pros- * pect rise; With-|in her _ gates we|stand,|
 E2 | D2 G2 G2 G2 | F2 A2 G2 z G | G2 (GF) (EG)(FE) | D2 A2 A2 z2 | z4 z2 ^F2 | G6 A2 | G6 F2 | %15
w: Here,|ea- ger to at-|test their joy, In|hymns of _ praise _ their _|tongues em- ploy,|And|hail th’im-|mor- tal|
w: My|feet the sum- mons|shall at- tend, With|wil- ling _ steps _ thy _|courts as- cend,|And|tread the|hal- low’d|
w: And,|lost in won- der|and de- light, Be-|hold her _ hap- * py _|sons u- nite|In|friend- ship’s|fir- mest|
 E4 z2 :| %16
w: King.|
w: floor.|
w: band.|
V:3
 c2 | c3 d c2 c2 | A2 G2 G2 z B | c2 e2 B2 d2 | A2 d2 d2 z A | (A^F) G2 G2 F2 | G4 z2 |: G2 | %8
w: Hi-|ther from Ju- dah’s|ut- most end The|heav’n- pro- tec- ted|tribes as- cend; Their|off- * ’rings hi- ther|bring;|Here,|
w: The|fe- stal morn, my|God, is come, Which|calls me to thy|ho- nour’d dome, Thy|pre- * sence to a-|dore:|My|
w: Ev’n|now to our trans-|por- ted eyes Fair|Si- on’s tow’rs in|pros- pect rise; With-|in _ her gates we|stand,|And,|
 (BG)(Bd) (cd) e2 | c2 c2 c2 z d | (ed) c2 c2 A2 | A2 ^c2 d2 z2 | z4 z2 d2 | (d2 B2 c2) c2 | %14
w: ea- * ger _ to _ at-|test their joy, In|hymns _ of praise their|tongues em- ploy,|And|hail _ _ th’im-|
w: feet _ the _ sum- * mons|shall at- tend, With|wil- * ling steps thy|courts as- cend,|And|tread _ _ the|
w: lost _ in _ won- * der|and de- light, Be-|hold _ her hap- py|sons u- nite|In|friend- * * ship’s|
 c4 B4 | c4 z2 :| %16
w: mor- tal|King.|
w: hal- low’d|floor.|
w: fir- mest|band.|
V:4
 C,2 | F,3"^6" D,"^6" E,2 C,2 |"^97""^86" F,2"^64""^53" G,2 C,2 z G, | C2 C,2 G,2"^6" B,2 | %4
w: Hi-|ther from Ju- dah’s|ut- most end The|heav’n- pro- tec- ted|
w: The|fe- stal morn, my|God, is come, Which|calls me to thy|
w: Ev’n|now to our trans-|por- ted eyes Fair|Si- on’s tow’rs in|
"^5""^´" A,2 G,2"^#" D,2 z"^´43" E, |"^#" (D,"^-"C,)"^6"(B,,C,)"^64" D,2"^7#" D,2 | G,,4 z2 |: %7
w: tribes as- cend; Their|off- * ’rings _ hi- ther|bring;|
w: ho- nour’d dome, Thy|pre- * sence _ to a-|dore:|
w: pros- pect rise; With-|in _ her _ gates we|stand,|
 C,2 | G,2 G,2 C2 C,2 | F,2 F,2"^6" E,2 z G, | C,2 C,2 C,2 (D,"^´4"E,) | %11
w: Here,|ea- ger to at-|test their joy, In|hymns of praise their _|
w: My|feet the sum- mons|shall at- tend, With|wil- ling steps thy _|
w: And,|lost in won- der|and de- light, Be-|hold her hap- py _|
"^Notes:The order of staves in the source is Tenor - [Alto] - Air - [Bass], with the alto part printed in the treble clef an octave abovesounding pitch.Only the first verse of text is given in the source: the subsequent verses have here been added editorially.The last note is printed in the source as a minim in all parts, followed directly by a repeat mark: a crotchet rest has here beenadded editorially to accommodate the repeat back to part-way through bar 6.""^6" F,2"^´4" E,2 D,2 z2 | %12
w: tongues em- ploy,|
w: courts as- cend,|
w: sons u- nite|
"^Be peace by each implor’d on thee,O Salem, while with bended kneeTo Jacob’s God we pray:How blest who calls himself thy friend!Success his labour shall attend,And safety guard his way.O may’st thou, free from hostile fear,Nor the loud voice of tumult hear,Nor war’s wild wastes deplore:May plenty near thee take her stand,And in thy courts with lavish handDistribute all her store.Seat of my friends and brethren, hail!How can my tongue, O Salem, failTo bless thy lov’d abode?How cease the zeal that in me glowsThy good to seek, whose walls incloseThe mansion of my God?" z4 z2"^#" D,2 | %13
w: And|
w: And|
w: In|
 (G,2"^42" F,2"^6" E,2) F,2 |"^64" G,4"^8""^7" G,,4 | C,4 z2 :| %16
w: hail _ _ th’im-|mor- tal|King.|
w: tread _ _ the|hal- low’d|floor.|
w: friend- * * ship’s|fir- mest|band.|

